X:1
T:The Old Woman Tossed Up
M:6/8
C:
S:Bacon (RKS (Jour.))
N:
A:Field Town
O:English
R:Jig
%P:A/2.(AB$^3$C$^3$B$^3$)$^4$
P:A.(AB3C3B3)4
K:G
I:speed 300
P:A
|: D | G2 G GBd | efg dBG | AGA BAB | E2 F G2 :|\
P:B
   c | d2 d Bcd | efg dBG | dcd Bcd | efg  d3 |\
       d2 c Bcd | efg dBG | AGA BAB | E2 F G2 ||\
P:C
   D | G3   G3  | (2GB d3 | (2ef g3 | (2dB G3 |\
       AGA  BAB | E2 F G2 ||
